src/Icon/svgs/trash.svg

<svg width="24" height="24" viewBox="0 0 24 24" fill="none" xmlns="http://www.w3.org/2000/svg">
<path fill-rule="evenodd" clip-rule="evenodd" d="M8 5V3.99896C8 2.89821 8.89545 2 9.99078 2H14.0092C15.1114 2 16 2.89309 16 3.99896V5H20.1C20.7 5 21 5.33333 21 6C21 6.66667 20.7 7 20.1 7H3.9C3.3 7 3 6.66667 3 6C3 5.33333 3.3 5 3.9 5H8ZM9.99921 5H14V4H10.0001C10.0001 4 9.99884 4.33333 9.99921 5ZM5 9H7V19.0081C7 19.5548 7.4482 20 8.00586 20H15.9941C16.5505 20 17 19.5534 17 19.0081V9H19V19.0081C19 20.6609 17.6522 22 15.9941 22H8.00586C6.3466 22 5 20.6623 5 19.0081V9Z" fill="#1B1C1D"/>
</svg>

<svg xmlns="http://www.w3.org/2000/svg" width="24" height="24" fill="none"><path fill-rule="evenodd" d="M8 5V3.999A2 2 0 0 1 9.991 2h4.018C15.111 2 16 2.893 16 3.999V5h4.1c.6 0 .9.333.9 1s-.3 1-.9 1H3.9C3.3 7 3 6.667 3 6s.3-1 .9-1H8zm1.999 0H14V4h-4l-.001 1zM5 9h2v10.008c0 .547.448.992 1.006.992h7.988A1 1 0 0 0 17 19.008V9h2v10.008A3 3 0 0 1 15.994 22H8.006A3 3 0 0 1 5 19.008V9z" fill="#1B1C1D"/></svg>
